assets/capabilities/alarm_sound_false.svg

<svg height="960" viewBox="0 0 960 960" width="960" xmlns="http://www.w3.org/2000/svg"><g transform="translate(127 99.6)"><path d="m299.09262 700.071538c-3.983852 7.126261-9.520731 12.691531-17.015775 16.899419-14.990087 8.483644-32.140907 8.620061-46.658333 0-7.224952-4.275078-12.829354-10.112504-17.15082-17.848909-4.321467-7.804952-6.4822-15.678453-6.4822-24.093549 0-8.552192 2.09321-16.425014 6.414677-24.093549 4.253943-7.669893 9.858345-13.370902 16.948251-17.57879 7.157429-4.207887 14.855041-6.243962 23.362928-6.243962 13.234491 0 24.105681 4.480043 33.086228 13.777438 9.048071 9.298074 13.504583 20.632223 13.504583 34.681137 0 9.230205-2.025688 17.238765-6.009539 24.500765m32.68109-162.071538h-18.096141c-5.401833 0-9.790823 4.411495-9.790823 9.841027v57.213696c-3.376145-2.579027-6.887337-4.886579-10.601097-6.786915-10.871189-5.768878-23.092837-8.619382-36.327328-8.619382-22.890267 0-42.742004 8.415775-59.015026 24.907979-16.2055 16.492204-24.443295 36.649342-24.443295 59.860593 0 23.618465 8.170273 44.047759 24.173203 60.539284 16.137976 16.627943 35.92219 25.043718 58.744935 25.043718 12.829354 0 24.848432-2.714766 35.719621-8.144298 4.051375-2.036075 7.967704-4.411495 11.681464-7.126261v1.696728c0 5.429533 4.38899 9.841028 9.790823 9.841028h18.096141c5.401833 0 9.790822-4.411495 9.790822-9.841028v-198.585142c.135046-5.429532-4.321466-9.841027-9.723299-9.841027"/><path d="m405.975 662.875994h1.08c19.2375 0 28.0125 1.151351 31.995 2.1002 7.83 1.895666 13.7025 5.214267 18.021825 10.090579 3.983175 4.605405 5.940675 9.820349 5.940675 15.984143 0 4.875634-1.418175 9.27786-4.253175 13.476906-2.9025 4.334499-6.681825 7.382194-11.475 9.41399-3.644325 1.557711-11.34 3.386328-27.2025 3.386328h-14.039325v-54.452146zm41.3775-62.782512c0 4.606082-1.215 8.601272-3.780675 12.394636-2.565 3.792009-6.006825 6.434022-10.4625 8.194235-3.509325 1.422257-10.866825 3.047695-25.919325 3.047695h-1.215v-42.193641h12.4875c13.8375 0 20.3175 2.912242 23.2875 5.350397 3.846825 3.115422 5.6025 7.315145 5.6025 13.206678zm49.7475 65.221345c-3.578175-7.788554-8.7075-14.561209-15.1875-20.047736-2.903175-2.505883-6.278175-4.740859-10.125-6.840382 2.9025-2.979968 5.4-6.230843 7.4925-9.752623 5.0625-8.533545 7.626825-18.150716 7.626825-28.512878 0-11.03875-2.901825-21.266136-8.639325-30.409221-5.805-9.143084-13.770675-16.051192-23.760675-20.453418-9.585-4.266772-22.41-6.298569-39.216825-6.298569h-38.0025c-5.4 0-9.7875 4.402226-9.7875 9.82035v193.3593c0 5.418124 4.3875 9.82035 9.7875 9.82035h52.919325c21.533175 0 39.15-6.298569 52.245675-18.760254 13.2975-12.597139 20.0475-28.241294 20.0475-46.527463 0-9.143084-1.8225-17.677307-5.4-25.397456z"/><path d="m0 217v28.535097c0 8.284271 6.715729 15 15 15s15-6.715729 15-15v-28.535097c0-8.284271-6.715729-15-15-15s-15 6.715729-15 15z"/><path d="m56 186.39823v89.543427c0 8.284271 6.715729 15 15 15s15-6.715729 15-15v-89.543427c0-8.284271-6.715729-15-15-15s-15 6.715729-15 15z"/><path d="m677 217v28.535097c0 8.284271 6.715729 15 15 15s15-6.715729 15-15v-28.535097c0-8.284271-6.715729-15-15-15s-15 6.715729-15 15z"/><path d="m621 186.39823v89.543427c0 8.284271 6.715729 15 15 15s15-6.715729 15-15v-89.543427c0-8.284271-6.715729-15-15-15s-15 6.715729-15 15z"/><path d="m113 158.399457v146.138391c0 8.284271 6.715729 15 15 15s15-6.715729 15-15v-146.138391c0-8.284272-6.715729-15-15-15s-15 6.715728-15 15z"/><path d="m564 142.399554v178.07444c0 8.284271 6.715729 15 15 15s15-6.715729 15-15v-178.07444c0-8.284272-6.715729-15-15-15s-15 6.715728-15 15z"/><path d="m573.757599 374.349133c14.27792 27.162449-5.409647 59.650867-36.005189 59.650867h-184.726132-184.814814c-30.595543 0-50.194426-32.577185-36.005189-59.650867l184.814814-352.5792303c15.25343-29.02653695 56.756949-29.02653695 72.010379 0zm-220.257599-.349133c16.517857 0 30-13.413842 30-29.84802s-13.392857-29.84802-30-29.84802c-16.517857 0-30 13.325009-30 29.84802 0 16.434178 13.392857 29.84802 30 29.84802zm-20.178571-228.301819v118.947912c0 11.459508 9.285714 20.698181 20.803571 20.698181s20.803571-9.238673 20.803571-20.698181v-118.947912c0-11.459508-9.285714-20.698181-20.803571-20.698181s-20.803571 9.238673-20.803571 20.698181z"/></g></svg>

<?xml version="1.0" encoding="UTF-8"?>
<svg width="960px" height="960px" viewBox="0 0 960 960" version="1.1" xmlns="http://www.w3.org/2000/svg" xmlns:xlink="http://www.w3.org/1999/xlink">
    <title>custom-capabilities/alarm_sound_false</title>
    <g id="custom-capabilities/alarm_sound_false" stroke="none" stroke-width="1" fill="none" fill-rule="evenodd">
        <g id="alarm_noise" transform="translate(127.000000, 99.600000)" fill="#000000" fill-rule="nonzero">
            <path d="M299.09262,700.071538 C295.108768,707.197799 289.571889,712.763069 282.076845,716.970957 C267.086758,725.454601 249.935938,725.591018 235.418512,716.970957 C228.19356,712.695879 222.589158,706.858453 218.267692,699.122048 C213.946225,691.317096 211.785492,683.443595 211.785492,675.028499 C211.785492,666.476307 213.878702,658.603485 218.200169,650.93495 C222.454112,643.265057 228.058514,637.564048 235.14842,633.35616 C242.305849,629.148273 250.003461,627.112198 258.511348,627.112198 C271.745839,627.112198 282.617029,631.592241 291.597576,640.889636 C300.645647,650.18771 305.102159,661.521859 305.102159,675.570773 C305.102159,684.800978 303.076471,692.809538 299.09262,700.071538 M331.77371,538 L313.677569,538 C308.275736,538 303.886746,542.411495 303.886746,547.841027 L303.886746,605.054723 C300.510601,602.475696 296.999409,600.168144 293.285649,598.267808 C282.41446,592.49893 270.192812,589.648426 256.958321,589.648426 C234.068054,589.648426 214.216317,598.064201 197.943295,614.556405 C181.737795,631.048609 173.5,651.205747 173.5,674.416998 C173.5,698.035463 181.670273,718.464757 197.673203,734.956282 C213.811179,751.584225 233.595393,760 256.418138,760 C269.247492,760 281.26657,757.285234 292.137759,751.855702 C296.189134,749.819627 300.105463,747.444207 303.819223,744.729441 L303.819223,746.426169 C303.819223,751.855702 308.208213,756.267197 313.610046,756.267197 L331.706187,756.267197 C337.10802,756.267197 341.497009,751.855702 341.497009,746.426169 L341.497009,547.841027 C341.632055,542.411495 337.175543,538 331.77371,538" id="Fill-6"></path>
            <path d="M405.975,662.875994 L407.055,662.875994 C426.2925,662.875994 435.0675,664.027345 439.05,664.976194 C446.88,666.87186 452.7525,670.190461 457.071825,675.066773 C461.055,679.672178 463.0125,684.887122 463.0125,691.050916 C463.0125,695.92655 461.594325,700.328776 458.759325,704.527822 C455.856825,708.862321 452.0775,711.910016 447.284325,713.941812 C443.64,715.499523 435.944325,717.32814 420.081825,717.32814 L406.0425,717.32814 L406.0425,662.875994 L405.975,662.875994 Z M447.3525,600.093482 C447.3525,604.699564 446.1375,608.694754 443.571825,612.488118 C441.006825,616.280127 437.565,618.92214 433.109325,620.682353 C429.6,622.10461 422.2425,623.730048 407.19,623.730048 L405.975,623.730048 L405.975,581.536407 L418.4625,581.536407 C432.3,581.536407 438.78,584.448649 441.75,586.886804 C445.596825,590.002226 447.3525,594.201949 447.3525,600.093482 L447.3525,600.093482 Z M497.1,665.314827 C493.521825,657.526273 488.3925,650.753618 481.9125,645.267091 C479.009325,642.761208 475.634325,640.526232 471.7875,638.426709 C474.69,635.446741 477.1875,632.195866 479.28,628.674086 C484.3425,620.140541 486.906825,610.52337 486.906825,600.161208 C486.906825,589.122458 484.005,578.895072 478.2675,569.751987 C472.4625,560.608903 464.496825,553.700795 454.506825,549.298569 C444.921825,545.031797 432.096825,543 415.29,543 L377.2875,543 C371.8875,543 367.5,547.402226 367.5,552.82035 L367.5,746.17965 C367.5,751.597774 371.8875,756 377.2875,756 L430.206825,756 C451.74,756 469.356825,749.701431 482.4525,737.239746 C495.75,724.642607 502.5,708.998452 502.5,690.712283 C502.5,681.569199 500.6775,673.034976 497.1,665.314827 L497.1,665.314827 Z" id="Fill-8"></path>
            <path d="M0,217 L0,245.535097 C0,253.819368 6.715729,260.535097 15,260.535097 C23.284271,260.535097 30,253.819368 30,245.535097 L30,217 C30,208.715729 23.284271,202 15,202 C6.715729,202 0,208.715729 0,217 Z" id="Line-2"></path>
            <path d="M56,186.39823 L56,275.941657 C56,284.225928 62.715729,290.941657 71,290.941657 C79.284271,290.941657 86,284.225928 86,275.941657 L86,186.39823 C86,178.113959 79.284271,171.39823 71,171.39823 C62.715729,171.39823 56,178.113959 56,186.39823 Z" id="Line"></path>
            <path d="M677,217 L677,245.535097 C677,253.819368 683.715729,260.535097 692,260.535097 C700.284271,260.535097 707,253.819368 707,245.535097 L707,217 C707,208.715729 700.284271,202 692,202 C683.715729,202 677,208.715729 677,217 Z" id="Line-2"></path>
            <path d="M621,186.39823 L621,275.941657 C621,284.225928 627.715729,290.941657 636,290.941657 C644.284271,290.941657 651,284.225928 651,275.941657 L651,186.39823 C651,178.113959 644.284271,171.39823 636,171.39823 C627.715729,171.39823 621,178.113959 621,186.39823 Z" id="Line"></path>
            <path d="M113,158.399457 L113,304.537848 C113,312.822119 119.715729,319.537848 128,319.537848 C136.284271,319.537848 143,312.822119 143,304.537848 L143,158.399457 C143,150.115185 136.284271,143.399457 128,143.399457 C119.715729,143.399457 113,150.115185 113,158.399457 Z" id="Line-3"></path>
            <path d="M564,142.399554 L564,320.473994 C564,328.758265 570.715729,335.473994 579,335.473994 C587.284271,335.473994 594,328.758265 594,320.473994 L594,142.399554 C594,134.115282 587.284271,127.399554 579,127.399554 C570.715729,127.399554 564,134.115282 564,142.399554 Z" id="Line-11"></path>
            <path d="M573.757599,374.349133 C588.035519,401.511582 568.347952,434 537.75241,434 L353.026278,434 L168.211464,434 C137.615921,434 118.017038,401.422815 132.206275,374.349133 L317.021089,21.7699027 C332.274519,-7.25663425 373.778038,-7.25663425 389.031468,21.7699027 L573.757599,374.349133 Z M353.5,374 C370.017857,374 383.5,360.586158 383.5,344.15198 C383.5,327.717802 370.107143,314.30396 353.5,314.30396 C336.982143,314.30396 323.5,327.628969 323.5,344.15198 C323.5,360.586158 336.892857,374 353.5,374 Z M333.321429,145.698181 L333.321429,264.646093 C333.321429,276.105601 342.607143,285.344274 354.125,285.344274 C365.642857,285.344274 374.928571,276.105601 374.928571,264.646093 L374.928571,145.698181 C374.928571,134.238673 365.642857,125 354.125,125 C342.607143,125 333.321429,134.238673 333.321429,145.698181 Z" id="Combined-Shape"></path>
        </g>
    </g>
</svg>
